X: 10
T: Paddy O'Rafferty
R: jig
M: 6/8
L: 1/8
K: Amaj
Ecc EBB | Ecc BAF | Ecc EBB | ABA AFE |
Ecc EBB | ABc d2 f | ecA BAF | ABA AFE :|
cAF E2 F | A2 c BAB | cAF EFG | AcB AFE |
cAF E2 F | ABc d2 f | ecA BAF| ABA AFE :|
AcE AcE | Ace fed | ceA cec | ABA AFE |
AcE AcE | Ace a3 | fec BcB | AcB AFE :|
cee aee | fee aee | cee fec | ABA AFE |
cee aee | fef a3 | fec BcB | AcB AFE :|
cEE BEE | cEE dEE | cEE BEE | ABA AFE |
cEE BEE | ABc d2 f | ecA BAF | ABA AFE :|


Tune 741	Setting 13828

